tools/download-figma-icons/icons/outlined-large/rocket.svg

<svg width="65" height="65" viewBox="0 0 65 65" fill="none" xmlns="http://www.w3.org/2000/svg">
<path fill-rule="evenodd" clip-rule="evenodd" d="M38.1872 44.9879C38.3852 44.9879 38.5841 45.0265 38.7699 45.1047C39.1781 45.2732 39.4928 45.6103 39.6319 46.0286L42.1356 53.5406L46.1388 49.5374C48.3684 47.3079 49.4354 44.1087 48.9907 40.9806L48.7166 39.0658C48.6496 38.5917 48.809 38.1135 49.1481 37.7744C61.6949 25.2266 62.0746 7.91614 61.9132 3.0885C57.0794 2.93723 39.7477 3.33217 27.2262 15.8526C26.8871 16.1917 26.4069 16.35 25.9348 16.284L24.019 16.0099C20.8889 15.5662 17.6918 16.6303 15.4612 18.8618L11.459 22.8651L18.971 25.3687C19.3893 25.5078 19.7264 25.8226 19.8949 26.2297C20.0645 26.6378 20.0493 27.0988 19.8513 27.4937C19.0441 29.1151 17.1557 33.8514 17.6958 36.9987L28.0009 47.3038C31.1513 47.85 35.8835 45.9575 37.5069 45.1484C37.7201 45.0418 37.9537 44.9879 38.1872 44.9879ZM41.4696 57.883C41.3528 57.883 41.236 57.8698 41.1203 57.8424C40.6066 57.7215 40.1923 57.3428 40.0258 56.8423L37.2724 48.583C34.9048 49.5486 30.3838 51.0552 26.8729 50.177C26.6059 50.111 26.3622 49.9719 26.1663 49.777L15.2237 38.8333C15.0277 38.6374 14.8896 38.3937 14.8226 38.1257C13.9464 34.621 15.4511 30.0949 16.4176 27.7282L8.15834 24.9748C7.65781 24.8083 7.27911 24.3941 7.15829 23.8803C7.03646 23.3666 7.18977 22.8265 7.56339 22.4539L13.3078 16.7084C16.2105 13.8037 20.3711 12.4158 24.4485 12.9935L25.6191 13.1611C41.2269 -1.90666 62.5975 0.0375957 63.5082 0.127955C64.229 0.20004 64.8006 0.770625 64.8717 1.49147C64.9631 2.40421 66.9063 23.7727 51.8386 39.3816L52.0061 40.5512C52.5848 44.6235 51.1959 48.7871 48.2922 51.6918L42.5468 57.4373C42.2584 57.7266 41.8696 57.883 41.4696 57.883ZM3.04815 61.9403L3.0512 61.9404C3.19941 61.9424 3.34663 61.9444 3.49284 61.9444C14.6406 61.9444 18.8601 55.4903 20.0205 53.1592L11.8252 44.9629C9.44338 46.1233 2.86439 50.3794 3.04815 61.9403ZM3.4969 64.9902C2.84814 64.9902 2.18009 64.9699 1.4897 64.9283C0.720122 64.8826 0.106895 64.2694 0.0612077 63.4998C-0.477904 54.4933 2.66235 49.0686 5.39141 46.103C8.3946 42.8399 11.5633 41.7607 11.6973 41.716C12.2405 41.5363 12.8456 41.6774 13.2537 42.0846L22.9049 51.7358C23.3121 52.1439 23.4552 52.746 23.2735 53.2922C23.2329 53.415 19.1961 64.9902 3.4969 64.9902ZM38.5798 20.8256C38.5798 18.0265 40.857 15.7492 43.6562 15.7492C46.4553 15.7492 48.7325 18.0265 48.7325 20.8256C48.7325 23.6247 46.4553 25.902 43.6562 25.902C40.857 25.902 38.5798 23.6247 38.5798 20.8256ZM35.534 20.8256C35.534 25.304 39.1778 28.9478 43.6562 28.9478C48.1345 28.9478 51.7784 25.304 51.7784 20.8256C51.7784 16.3472 48.1345 12.7034 43.6562 12.7034C39.1778 12.7034 35.534 16.3472 35.534 20.8256Z" fill="black"/>
</svg>

<svg xmlns="http://www.w3.org/2000/svg" width="65" height="65" fill="none" viewBox="0 0 65 65"><path fill="currentColor" fill-rule="evenodd" d="M38.187 44.988a1.52 1.52 0 0 1 1.445 1.04l2.504 7.513 4.003-4.004a10.14 10.14 0 0 0 2.852-8.556l-.274-1.915a1.52 1.52 0 0 1 .431-1.292C61.695 25.227 62.075 7.916 61.913 3.088c-4.834-.15-22.165.244-34.687 12.765a1.53 1.53 0 0 1-1.291.431l-1.916-.274a10.14 10.14 0 0 0-8.558 2.852l-4.002 4.003 7.512 2.504a1.523 1.523 0 0 1 .88 2.125c-.807 1.621-2.695 6.357-2.155 9.505L28 47.304c3.15.546 7.882-1.346 9.506-2.156a1.5 1.5 0 0 1 .68-.16m3.283 12.895q-.176 0-.35-.04a1.52 1.52 0 0 1-1.094-1l-2.754-8.26c-2.367.966-6.888 2.472-10.4 1.594a1.5 1.5 0 0 1-.706-.4L15.224 38.833a1.5 1.5 0 0 1-.401-.707c-.877-3.505.628-8.031 1.595-10.398l-8.26-2.753a1.52 1.52 0 0 1-.595-2.521l5.745-5.746a13.2 13.2 0 0 1 11.14-3.714l1.171.167C41.227-1.907 62.598.038 63.51.128c.72.072 1.292.643 1.363 1.363.091.913 2.034 22.282-13.033 37.89l.167 1.17a13.2 13.2 0 0 1-3.714 11.14l-5.745 5.746a1.52 1.52 0 0 1-1.077.446M3.048 61.94h.003q.222.004.442.004c11.148 0 15.367-6.454 16.527-8.785l-8.195-8.196c-2.382 1.16-8.96 5.416-8.777 16.977m.449 3.05q-.973 0-2.007-.062A1.52 1.52 0 0 1 .06 63.5c-.539-9.007 2.601-14.431 5.33-17.397 3.004-3.263 6.172-4.342 6.306-4.387a1.53 1.53 0 0 1 1.557.369l9.65 9.65c.408.409.551 1.011.37 1.557-.041.123-4.078 11.698-19.777 11.698M38.58 20.826c0-2.8 2.277-5.077 5.076-5.077 2.8 0 5.077 2.277 5.077 5.077s-2.278 5.076-5.077 5.076a5.08 5.08 0 0 1-5.076-5.076m-3.046 0c0 4.478 3.644 8.122 8.122 8.122 4.479 0 8.122-3.644 8.122-8.122 0-4.479-3.643-8.123-8.122-8.123-4.478 0-8.122 3.644-8.122 8.123" clip-rule="evenodd"/></svg>
